svgs/sharp-regular/road-bridge.svg

<svg xmlns="http://www.w3.org/2000/svg" viewBox="0 0 640 512"><!--! Font Awesome Pro 6.6.0 by @fontawesome - https://fontawesome.com License - https://fontawesome.com/license (Commercial License) Copyright 2024 Fonticons, Inc. --><path d="M320 48l0-48 48 0L592 0l48 0 0 48 0 416 0 48-48 0-224 0-48 0 0-48 0-416zM504 464l88 0 0-416-88 0 0 56 0 24-48 0 0-24 0-56-88 0 0 416 88 0 0-56 0-24 48 0 0 24 0 56zm0-272l0 24 0 80 0 24-48 0 0-24 0-80 0-24 48 0zM24 96l264 0 0 48-40 0 0 64 40 0 0 48-64 0L96 256l-72 0L0 256l0-48 24 0 48 0 0-64-48 0L0 144 0 96l24 0zM272 304l16 0 0 48-16 0c-30.9 0-56 25.1-56 56l0 80 0 24-24 0-96 0-24 0 0-24 0-88c0-26.5-21.5-48-48-48L0 352l0-48 24 0c53 0 96 43 96 96l0 64 48 0 0-56c0-57.4 46.6-104 104-104zM200 144l-80 0 0 64 80 0 0-64z"/></svg>

<svg xmlns="http://www.w3.org/2000/svg" viewBox="0 0 640 512"><!--! Font Awesome Pro 6.5.2 by @fontawesome - https://fontawesome.com License - https://fontawesome.com/license (Commercial License) Copyright 2024 Fonticons, Inc. --><path d="M320 48V0h48H592h48V48 464v48H592 368 320V464 48zM504 464h88V48H504v56 24H456V104 48H368V464h88V408 384h48v24 56zm0-272v24 80 24H456V296 216 192h48zM24 96H288v48H248v64h40v48H224 96 24 0V208H24 72V144H24 0V96H24zM272 304h16v48H272c-30.9 0-56 25.1-56 56v80 24H192 96 72V488 400c0-26.5-21.5-48-48-48H0V304H24c53 0 96 43 96 96v64h48V408c0-57.4 46.6-104 104-104zM200 144H120v64h80V144z"/></svg>
